src/components/Icon/utils/svgsOptimized/code-inline.svg

<svg width="24" height="24" viewBox="0 0 24 24"  xmlns="http://www.w3.org/2000/svg">
<path d="M14.41 15.69L14.73 16.01C14.86 16.14 15.06 16.14 15.19 16.01L19.2 12L15.19 7.99002C15.06 7.86002 14.86 7.86002 14.73 7.99002L14.41 8.31002C14.29 8.43002 14.29 8.62002 14.4 8.75002L17.31 12L14.4 15.25C14.28 15.37 14.29 15.57 14.41 15.69Z" />
<path d="M9.59002 15.69L9.27002 16.01C9.14002 16.14 8.94002 16.14 8.81002 16.01L4.80002 12L8.81002 8.00003C8.94002 7.87003 9.14002 7.87003 9.27002 8.00003L9.59002 8.32003C9.71002 8.44003 9.71002 8.63003 9.60002 8.76003L6.69002 12L9.60002 15.25C9.72002 15.37 9.71002 15.57 9.59002 15.69Z" />
</svg>

<?xml version="1.0" encoding="utf-8"?><svg width="24" height="24" xmlns="http://www.w3.org/2000/svg" viewBox="0 0 24 24"><path d="m14.41 15.69.32.32c.13.13.33.13.46 0L19.2 12l-4.01-4.01a.32.32 0 0 0-.46 0l-.32.32c-.12.12-.12.31-.01.44L17.31 12l-2.91 3.25c-.12.12-.11.32.01.44Zm-4.82 0-.32.32a.32.32 0 0 1-.46 0L4.8 12l4.01-4a.32.32 0 0 1 .46 0l.32.32c.12.12.12.31.01.44L6.69 12l2.91 3.25c.12.12.11.32-.01.44Z"/></svg>
